X: 09034
T: DOWDY'S HORNPIPE
C: Bob McQuillen 22 Nor 92
B: Bob's Note Book 9 #34
R: hornpipe, reel
Z: 2019 John Chambers <jc:trillian.mit.edu>
M: C
L: 1/8
K: D
fe \
| dAFA BAFE | DFAd f2fd | BGBd gfed | c2A2 Agfe |
| dAFA BAFE | DFAd fafd | cedB Aceg | f2d2 d2 :|
|: de \
| fafd AFAd | fafd A2FE | DFAF Adfd | fafd e2de |
| fafd AFAd | fafd AGFE | DFAF GBAG | F2D2 D2 :|
%%begintext align
%% Once upon a time there was a band who
%% called themselves the "Bobolinks". Deanna Stiles was the spark plug of this
%% group. Deanna loves to play these little tunes of mine, and she got this band
%% interested in them, hence its name (link with Bob). So that's what happened,
%% and Mark Dowdy was the mandolin player, and I see Mark occasionally
%% at a dance, and he's a real nice guy, and soooo - Now you have a new
%% tune to try out on your mandolin, Mark!
%%endtext

%%sep 1 1 500

%%sep 1 1 500

